app/icons/utility/search.svg

<?xml version="1.0" encoding="UTF-8" standalone="no"?>
<svg width="52px" height="52px" viewBox="0 0 52 52" version="1.1" xmlns="http://www.w3.org/2000/svg" xmlns:xlink="http://www.w3.org/1999/xlink">
    <!-- Generator: Sketch 41.2 (35397) - http://www.bohemiancoding.com/sketch -->
    <title>search</title>
    <desc>Created with Sketch.</desc>
    <defs></defs>
    <g id="Page-1" stroke="none" stroke-width="1" fill="none" fill-rule="evenodd">
        <g id="search">
            <rect id="Rectangle" opacity="0" x="0" y="0" width="52" height="52"></rect>
            <path d="M49.5979248,45.2979083 L36.1979248,31.9979083 C38.8979248,28.1979083 40.2979248,23.3979083 39.5979248,18.2979083 C38.3979248,9.69790834 31.3979248,2.89790834 22.6979248,2.09790834 C10.8979248,0.897908337 0.897924817,10.8979083 2.09792482,22.7979083 C2.89792482,31.3979083 9.69792482,38.4979083 18.2979248,39.6979083 C23.3979248,40.3979083 28.1979248,38.9979083 31.9979248,36.2979083 L45.2979248,49.5979083 C45.8979248,50.1979083 46.7979248,50.1979083 47.3979248,49.5979083 L49.4979248,47.4979083 C50.0979248,46.8979083 50.0979248,45.8979083 49.5979248,45.2979083 L49.5979248,45.2979083 Z M7.99792482,20.8979083 C7.99792482,13.7979083 13.7979248,7.99790834 20.8979248,7.99790834 C27.9979248,7.99790834 33.7979248,13.7979083 33.7979248,20.8979083 C33.7979248,27.9979083 27.9979248,33.7979083 20.8979248,33.7979083 C13.7979248,33.7979083 7.99792482,28.0979083 7.99792482,20.8979083 L7.99792482,20.8979083 Z" id="Shape" fill="#FFFFFF"></path>
        </g>
    </g>
</svg>

<?xml version="1.0"?><svg xmlns="http://www.w3.org/2000/svg" width="52" height="52" viewBox="0 0 52 52"><path fill="#fff" d="m49.6 45.3l-13.4-13.3c2.7-3.8 4.1-8.6 3.4-13.7-1.2-8.6-8.2-15.4-16.9-16.2-11.8-1.2-21.8 8.8-20.6 20.7 0.8 8.6 7.6 15.7 16.2 16.9 5.1 0.7 9.9-0.7 13.7-3.4l13.3 13.3c0.6 0.6 1.5 0.6 2.1 0l2.1-2.1c0.6-0.6 0.6-1.6 0.1-2.2z m-41.6-24.4c0-7.1 5.8-12.9 12.9-12.9s12.9 5.8 12.9 12.9-5.8 12.9-12.9 12.9-12.9-5.7-12.9-12.9z"></path></svg>
